icon/ir/african-tree.svg

<svg viewBox="0 0 24 24" stroke-width="1.5" fill="none" xmlns="http://www.w3.org/2000/svg" height="1em" width="1em">
  <g clip-path="url(#clip0_2032_8254)">
    <path d="M12 22L12 12M12 8L12 12M12 12L15 9" stroke="currentColor" stroke-linecap="round" stroke-linejoin="round"/>
    <path d="M12.4243 18.5757L18.593 12.4071C20.9331 10.0669 20.6927 6.2053 18.0804 4.17349C14.5041 1.39191 9.49616 1.39192 5.91984 4.1735C3.3075 6.20532 3.06707 10.067 5.40723 12.4071L11.5758 18.5757C11.8101 18.81 12.19 18.81 12.4243 18.5757Z" stroke="currentColor" stroke-linecap="round" stroke-linejoin="round"/>
  </g>
  <defs>
    <clipPath id="clip0_2032_8254">
      <rect width="24" height="24" fill="white"/>
    </clipPath>
  </defs>
</svg>

<svg width="24" height="24" stroke-width="1.5" fill="none" xmlns="http://www.w3.org/2000/svg"><g clip-path="url(#a)" stroke="currentColor" stroke-linecap="round" stroke-linejoin="round"><path d="M12 22V12m0-4v4m0 0 3-3M12.424 18.576l6.169-6.169a5.502 5.502 0 0 0-.513-8.234 9.904 9.904 0 0 0-12.16 0 5.502 5.502 0 0 0-.513 8.234l6.169 6.169a.6.6 0 0 0 .848 0Z"/></g><defs><clipPath id="a"><path fill="#fff" d="M0 0h24v24H0z"/></clipPath></defs></svg>
